src/components/00-materials/images-raw/Man Elderly.svg

<svg width="96" height="96" viewBox="0 0 96 96" fill="none" xmlns="http://www.w3.org/2000/svg">
<path d="M41 53V48.25M55 48.42V53M40.73 53.18L32.31 54.43C29.2088 54.8364 26.358 56.3472 24.2806 58.6855C22.2032 61.0237 21.0384 64.0325 21 67.16V73.85C21.0024 74.7999 21.3428 75.718 21.9602 76.4399C22.5777 77.1618 23.4319 77.6404 24.37 77.79L35.44 79.79C43.7416 81.3401 52.2584 81.3401 60.56 79.79L71.63 77.79C72.5681 77.6404 73.4223 77.1618 74.0398 76.4399C74.6572 75.718 74.9976 74.7999 75 73.85V67.16C74.9616 64.0325 73.7968 61.0237 71.7194 58.6855C69.642 56.3472 66.7912 54.8364 63.69 54.43L55.27 53.18M29 55.36V78M34 54.18V79M67 55.36V78M62 54.18V79M56 17L62.08 19.13C63.2316 19.6238 64.2151 20.4413 64.911 21.4833C65.6069 22.5254 65.9852 23.7471 66 25V30C66 34 61 36 61 36V24L58.51 23C57.7692 22.7026 57.1343 22.1904 56.687 21.5293C56.2397 20.8681 56.0004 20.0883 56 19.29V17ZM56 17C54.16 15.74 50.43 15 48 15C45.57 15 41.85 15.74 40 17M40 17L33.92 19.13C32.7684 19.6238 31.7849 20.4413 31.089 21.4833C30.3931 22.5254 30.0148 23.7471 30 25V30C30 34 35 36 35 36V24L37.49 23C38.2308 22.7026 38.8657 22.1904 39.313 21.5293C39.7603 20.8681 39.9996 20.0883 40 19.29V17ZM35 36.07C35 42.71 39 50 48 50.07C57 50.14 61 42.68 61 36.07M48 59V81" stroke="#00008F" stroke-width="2" stroke-linecap="round" stroke-linejoin="round"/>
<path d="M38 54.1101L40 63.1301L48 59.0001L41 53.1001M55 53.1001L48 59.0001L56 63.1301L58 54.1101L55 53.1001Z" stroke="#00008F" stroke-width="2" stroke-linecap="round" stroke-linejoin="round"/>
</svg>

<svg width="96" height="96" viewBox="0 0 96 96" fill="none" xmlns="http://www.w3.org/2000/svg"><path d="M41 53v-4.75m14 .17V53m-14.27.18l-8.42 1.25A13 13 0 0021 67.16v6.69a4 4 0 003.37 3.94l11.07 2a68.428 68.428 0 0025.12 0l11.07-2A4 4 0 0075 73.85v-6.69a13 13 0 00-11.31-12.73l-8.42-1.25M29 55.36V78m5-23.82V79m33-23.64V78m-5-23.82V79m-6-62l6.08 2.13A6.47 6.47 0 0166 25v5c0 4-5 6-5 6V24l-2.49-1A4 4 0 0156 19.29V17zm0 0c-1.84-1.26-5.57-2-8-2-2.43 0-6.15.74-8 2m0 0l-6.08 2.13A6.47 6.47 0 0030 25v5c0 4 5 6 5 6V24l2.49-1A4 4 0 0040 19.29V17zm-5 19.07c0 6.64 4 13.93 13 14 9 .07 13-7.39 13-14M48 59v22" stroke="#00008F" stroke-width="2" stroke-linecap="round" stroke-linejoin="round"/><path d="M38 54.11l2 9.02L48 59l-7-5.9m14 0L48 59l8 4.13 2-9.02-3-1.01z" stroke="#00008F" stroke-width="2" stroke-linecap="round" stroke-linejoin="round"/></svg>
